site/static/img/icon_docs_link.svg

<svg width="20" height="25" viewBox="0 0 20 25" fill="none" xmlns="http://www.w3.org/2000/svg"> <path d="M9.32227 9.1334H3.84812V8.05831H9.32227V9.1334Z" fill="#111111"/> <path d="M9.32227 9.1334H3.84812V8.05831H9.32227V9.1334Z" fill="url(#paint0_linear)"/> <path d="M3.84812 13.6982H13.6812V12.6232H3.84812V13.6982Z" fill="#111111"/> <path d="M3.84812 13.6982H13.6812V12.6232H3.84812V13.6982Z" fill="url(#paint1_linear)"/> <path d="M13.6812 16.7228H3.84812V15.6477H13.6812V16.7228Z" fill="#111111"/> <path d="M13.6812 16.7228H3.84812V15.6477H13.6812V16.7228Z" fill="url(#paint2_linear)"/> <path fill-rule="evenodd" clip-rule="evenodd" d="M17.5296 5.43582V21.9819C17.5296 22.2787 17.2869 22.5194 16.9876 22.5194H0.542068C0.242692 22.5194 0 22.2787 0 21.9819V0.537543C0 0.240666 0.242692 0 0.542068 0H11.953C12.0948 0 12.231 0.0551124 12.3323 0.153516L17.3594 5.03623L17.3655 5.04211C17.4746 5.14734 17.5319 5.29056 17.5296 5.43582ZM11.3744 1.07509H1.08414V21.4443H16.4455V5.96504H11.9165C11.6171 5.96504 11.3744 5.72437 11.3744 5.4275V1.07509ZM12.4586 4.88996V1.81002L15.6526 4.88996H12.4586Z" fill="#111111"/> <path fill-rule="evenodd" clip-rule="evenodd" d="M17.5296 5.43582V21.9819C17.5296 22.2787 17.2869 22.5194 16.9876 22.5194H0.542068C0.242692 22.5194 0 22.2787 0 21.9819V0.537543C0 0.240666 0.242692 0 0.542068 0H11.953C12.0948 0 12.231 0.0551124 12.3323 0.153516L17.3594 5.03623L17.3655 5.04211C17.4746 5.14734 17.5319 5.29056 17.5296 5.43582ZM11.3744 1.07509H1.08414V21.4443H16.4455V5.96504H11.9165C11.6171 5.96504 11.3744 5.72437 11.3744 5.4275V1.07509ZM12.4586 4.88996V1.81002L15.6526 4.88996H12.4586Z" fill="url(#paint3_linear)"/> <path d="M18.9159 7.9081V23.9249H3.01243V25H19.4579C19.7573 25 20 24.7593 20 24.4625V7.9081H18.9159Z" fill="#111111"/> <path d="M18.9159 7.9081V23.9249H3.01243V25H19.4579C19.7573 25 20 24.7593 20 24.4625V7.9081H18.9159Z" fill="url(#paint4_linear)"/> <defs> <linearGradient id="paint0_linear" x1="12.796" y1="48.4837" x2="-7.47732" y2="45.3909" gradientUnits="userSpaceOnUse"> <stop stop-color="#5C29F1"/> <stop offset="0.473958" stop-color="#E37AC2"/> <stop offset="0.807292" stop-color="#FF9067"/> </linearGradient> <linearGradient id="paint1_linear" x1="12.796" y1="48.4837" x2="-7.47732" y2="45.3909" gradientUnits="userSpaceOnUse"> <stop stop-color="#5C29F1"/> <stop offset="0.473958" stop-color="#E37AC2"/> <stop offset="0.807292" stop-color="#FF9067"/> </linearGradient> <linearGradient id="paint2_linear" x1="12.796" y1="48.4837" x2="-7.47732" y2="45.3909" gradientUnits="userSpaceOnUse"> <stop stop-color="#5C29F1"/> <stop offset="0.473958" stop-color="#E37AC2"/> <stop offset="0.807292" stop-color="#FF9067"/> </linearGradient> <linearGradient id="paint3_linear" x1="12.796" y1="48.4837" x2="-7.47732" y2="45.3909" gradientUnits="userSpaceOnUse"> <stop stop-color="#5C29F1"/> <stop offset="0.473958" stop-color="#E37AC2"/> <stop offset="0.807292" stop-color="#FF9067"/> </linearGradient> <linearGradient id="paint4_linear" x1="12.796" y1="48.4837" x2="-7.47732" y2="45.3909" gradientUnits="userSpaceOnUse"> <stop stop-color="#5C29F1"/> <stop offset="0.473958" stop-color="#E37AC2"/> <stop offset="0.807292" stop-color="#FF9067"/> </linearGradient> </defs> </svg>

<svg width="20" height="25" fill="none" xmlns="http://www.w3.org/2000/svg"><path d="M9.322 9.133H3.848V8.058h5.474v1.075Z" fill="#111"/><path d="M9.322 9.133H3.848V8.058h5.474v1.075Z" fill="url(#a)"/><path d="M3.848 13.698h9.833v-1.075H3.848v1.075Z" fill="#111"/><path d="M3.848 13.698h9.833v-1.075H3.848v1.075Z" fill="url(#b)"/><path d="M13.681 16.723H3.848v-1.075h9.833v1.075Z" fill="#111"/><path d="M13.681 16.723H3.848v-1.075h9.833v1.075Z" fill="url(#c)"/><path fill-rule="evenodd" clip-rule="evenodd" d="M17.53 5.436v16.546a.54.54 0 0 1-.542.537H.542A.54.54 0 0 1 0 21.982V.538A.54.54 0 0 1 .542 0h11.411c.142 0 .278.055.38.154l5.026 4.882.006.006c.11.105.167.249.165.394Zm-6.156-4.36H1.084v20.368h15.361V5.965h-4.529a.54.54 0 0 1-.542-.537V1.075ZM12.46 4.89V1.81l3.194 3.08H12.46Z" fill="#111"/><path fill-rule="evenodd" clip-rule="evenodd" d="M17.53 5.436v16.546a.54.54 0 0 1-.542.537H.542A.54.54 0 0 1 0 21.982V.538A.54.54 0 0 1 .542 0h11.411c.142 0 .278.055.38.154l5.026 4.882.006.006c.11.105.167.249.165.394Zm-6.156-4.36H1.084v20.368h15.361V5.965h-4.529a.54.54 0 0 1-.542-.537V1.075ZM12.46 4.89V1.81l3.194 3.08H12.46Z" fill="url(#d)"/><path d="M18.916 7.908v16.017H3.012V25h16.446c.3 0 .542-.24.542-.538V7.909h-1.084Z" fill="#111"/><path d="M18.916 7.908v16.017H3.012V25h16.446c.3 0 .542-.24.542-.538V7.909h-1.084Z" fill="url(#e)"/><defs><linearGradient id="a" x1="12.796" y1="48.484" x2="-7.477" y2="45.391" gradientUnits="userSpaceOnUse"><stop stop-color="#5C29F1"/><stop offset=".474" stop-color="#E37AC2"/><stop offset=".807" stop-color="#FF9067"/></linearGradient><linearGradient id="b" x1="12.796" y1="48.484" x2="-7.477" y2="45.391" gradientUnits="userSpaceOnUse"><stop stop-color="#5C29F1"/><stop offset=".474" stop-color="#E37AC2"/><stop offset=".807" stop-color="#FF9067"/></linearGradient><linearGradient id="c" x1="12.796" y1="48.484" x2="-7.477" y2="45.391" gradientUnits="userSpaceOnUse"><stop stop-color="#5C29F1"/><stop offset=".474" stop-color="#E37AC2"/><stop offset=".807" stop-color="#FF9067"/></linearGradient><linearGradient id="d" x1="12.796" y1="48.484" x2="-7.477" y2="45.391" gradientUnits="userSpaceOnUse"><stop stop-color="#5C29F1"/><stop offset=".474" stop-color="#E37AC2"/><stop offset=".807" stop-color="#FF9067"/></linearGradient><linearGradient id="e" x1="12.796" y1="48.484" x2="-7.477" y2="45.391" gradientUnits="userSpaceOnUse"><stop stop-color="#5C29F1"/><stop offset=".474" stop-color="#E37AC2"/><stop offset=".807" stop-color="#FF9067"/></linearGradient></defs></svg>
